!! 00000] TT[WS
!!!OTL: Liao bujian meizi shan dangzhule
!!!ARE: Asia, China,ÿShanxi Hequ
!! Ethnic Group: Han
!! WI, 8
!!!SCT: J0009
!!!YEM: Copyright 1995, estate of Helmut Schaffrath.
**kern
*ICvox
*Ivox
*M2/4
*k[f#c#g#]
*A:
{8bb
8eee
4bb
=1
8bb
8aa
8ff#
8b
=2
8b
8bb
8bb
16ccc#
16aa
=3
2ff#}
=4
{8bb
8eee
4bb
=5
8ff#
4ee
8b
=6
8b
8aa
8ff#
8ee
=7
2b}
==
!!!AGN: Shange, Shanqu. Qingge
!!!ONB: ESAC (Essen Associative Code) Database: CHINA
!!!AMT: simple duple
!!!AIN: vox
!!!EED: Helmut Schaffrath
!!!EEV: 1.0
*-
